X:1
T:Title
%%score { ( 1 3 ) | ( 2 4 ) }
L:1/8
M:4/4
K:Eb
V:1 treble nm="Grand Piano"
V:3 treble 
V:2 bass 
V:4 bass 
V:1
 z4 z2[Q:1/4=108] [EGB]2 | [EGB]3 [B,FA] [B,EG][B,DF][B,EG][EFA] | B4 z4 | %3
 [EAc]>[EAc] [EGB]2- [EGB][B,EG][G,B,E][B,EG] |[M:3/4] [B,DF]6 |[M:1/4] [DB]2 | %6
[M:4/4] B3 A G2 [Ge]2 | e3 d c2 c2 | [GB][Ac] [GB]2- [GB][G,B,E][B,EG][A,DF] |[M:3/4] [G,E]6 | %10
[M:1/4] [EGB]2 |[M:4/4] [GB]4 z4 | [Ae]4 z4 | [GB]3 [Ac] [GB]GEG | [DF]6 z2 | %15
 B->[G,B-] [G,B-][G,B] G2 [Ge]2 | A6 z2 | [GB][Ac] [GB]2- [GB][G,B,E][B,EG][A,DF] |[M:3/4] E6 |] %19
V:2
 z4 z2 E,2 | E,3 E, E,B,,E,E, | z4[K:treble] e2[K:bass] E,2 | A,>A, E,2- E,E,E,E, |[M:3/4] B,,6 | %5
[M:1/4] [B,,A,]2 |[M:4/4] [E,G,E]3 [E,CE] [E,B,E]2 [E,B,]2 | [A,CA]3 [A,EA] [A,EA]2 [A,EA]2 | %8
 [E,E][E,E] [E,E]2- [E,E]E,B,,B,, |[M:3/4] E,6 |[M:1/4] E,2 |[M:4/4] E,>E, E,E, [E,B,]2 [E,B,]2 | %12
 [A,C]>A, A,A,[K:treble] [A,EA]2 [A,EA]2 | [E,E]3 [E,E] [E,E][E,B,E][E,G,B,][E,B,E] | %14
 [B,,B,]>B,, B,,B,, B,,2 [B,,A,]2 | [E,G,]>E, E,E, [E,B,]2 [E,B,]2 | %16
 [A,C]>A, A,A,[K:treble] [A,E]2 [A,EA]2 | [E,E][E,E] [E,E]2- [E,E]E,B,,B,, |[M:3/4] z2 A,2 G,2 |] %19
V:3
 x8 | x8 | [EG]6 [EGB]2 | x8 |[M:3/4] x6 |[M:1/4] x2 |[M:4/4] x8 | x8 | x8 |[M:3/4] x6 | %10
[M:1/4] x2 |[M:4/4] E>E EE [EG]2 [Ge]2 | z z/ C/ CC c2 c2 | x8 | z z/ B,/ B,B, B,2 [DB]2 | E6 z2 | %16
 e->[Ce-] [Ce-][Ce] c2 c2 | x8 |[M:3/4] G,2 C2 B,2 |] %19
V:4
 x8 | x8 | E,6[K:treble][K:bass] z2 | x8 |[M:3/4] x6 |[M:1/4] x2 |[M:4/4] x8 | x8 | x8 | %9
[M:3/4] x6 |[M:1/4] x2 |[M:4/4] x8 | x4[K:treble] x4 | x8 | x8 | x8 | x4[K:treble] x4 | x8 | %18
[M:3/4] E,6 |] %19

